icons/fill-new-food-orange.svg

<svg xmlns="http://www.w3.org/2000/svg" width="32px" height="32px" viewBox="0 0 32 32" version="1.1">
    <title>fill-new-food-orange</title>
    <g id="fill-new-food-orange" stroke-width="1" fill-rule="evenodd">
        <path d="M13.9689397,19.4467167 C14.2867827,19.6344177 14.6328482,19.7794067 14.9992387,19.8737865 L14.9991339,29.9647748 C11.8856393,29.7448476 9.05327121,28.506834 6.83292489,26.5816294 L13.9689397,19.4467167 Z M18.0320743,19.4461177 L25.1670751,26.5816294 C22.9464911,28.5070401 20.1137544,29.7451126 16.9998663,29.9648454 L16.9997565,19.8740452 C17.3669088,19.7795715 17.7136629,19.6342809 18.0320743,19.4461177 Z M12.1259548,16.9997565 C12.2204285,17.3669088 12.3657191,17.7136629 12.5538823,18.0320743 L5.41837065,25.1670751 C3.49295992,22.9464911 2.25488741,20.1137544 2.03515462,16.9998663 L12.1259548,16.9997565 Z M29.9648454,16.9998663 C29.7451126,20.1137544 28.5070401,22.9464911 26.5816294,25.1670751 L19.4461177,18.0320743 C19.6342809,17.7136629 19.7795715,17.3669088 19.8740452,16.9997565 L29.9648454,16.9998663 Z M16,14 C17.1045695,14 18,14.8954305 18,16 C18,17.1045695 17.1045695,18 16,18 C14.8954305,18 14,17.1045695 14,16 C14,14.8954305 14.8954305,14 16,14 Z M5.41837065,6.83292489 L12.5538823,13.9679257 C12.3658908,14.2860466 12.2206936,14.6324585 12.1262135,14.9992387 L2.0352252,14.9991339 C2.25515242,11.8856393 3.49316598,9.05327121 5.41837065,6.83292489 Z M26.5816294,6.83292489 C28.506834,9.05327121 29.7448476,11.8856393 29.9647748,14.9991339 L19.8737865,14.9992387 C19.7794067,14.6328482 19.6344177,14.2867827 19.4467167,13.9689397 L26.5816294,6.83292489 Z M14.9991339,2.0352252 L14.9992387,12.1262135 C14.6324585,12.2206936 14.2860466,12.3658908 13.9679257,12.5538823 L6.83292489,5.41837065 C9.05327121,3.49316598 11.8856393,2.25515242 14.9991339,2.0352252 Z M16.9998663,2.03515462 C20.1137544,2.25488741 22.9464911,3.49295992 25.1670751,5.41837065 L18.0320743,12.5538823 C17.7136629,12.3657191 17.3669088,12.2204285 16.9997565,12.1259548 L16.9998663,2.03515462 Z" id="&#24418;&#29366;" />
    </g>
</svg>

<svg xmlns="http://www.w3.org/2000/svg" viewBox="0 0 32 32"><path fill="currentColor" d="M13.969 19.447c.318.187.664.332 1.03.427v10.09a13.94 13.94 0 0 1-8.166-3.382zm4.063 0 7.135 7.135A13.94 13.94 0 0 1 17 29.965V19.874c.367-.094.714-.24 1.032-.428M12.126 17c.094.367.24.714.428 1.032l-7.136 7.135A13.94 13.94 0 0 1 2.035 17zm17.839 0a13.94 13.94 0 0 1-3.383 8.167l-7.136-7.135c.188-.318.334-.665.428-1.032zM16 14a2 2 0 1 1 0 4 2 2 0 0 1 0-4M5.418 6.833l7.136 7.135a3.976 3.976 0 0 0-.428 1.031H2.036a13.94 13.94 0 0 1 3.382-8.166m21.164 0a13.94 13.94 0 0 1 3.383 8.166H19.874a3.976 3.976 0 0 0-.427-1.03zM14.999 2.035v10.091c-.367.095-.713.24-1.031.428L6.833 5.418a13.94 13.94 0 0 1 8.166-3.383m2 0a13.94 13.94 0 0 1 8.168 3.383l-7.135 7.136A3.976 3.976 0 0 0 17 12.126z"/></svg>
